svg/u1f449_1f3ff.svg

<svg viewBox="0 0 128 128" xmlns="http://www.w3.org/2000/svg">
  <linearGradient id="a" gradientTransform="matrix(-1 -.0020953 -.0020953 1 1853.2 1623.2)" gradientUnits="userSpaceOnUse" x1="1734.2" x2="1850.8" y1="-1555.4" y2="-1555.4">
    <stop offset=".1233" stop-color="#5C4037"/>
    <stop offset=".6476" stop-color="#70534A"/>
  </linearGradient>
  <path d="m47.84 108.17c-16.46-0.04-39.89-11.38-40.13-11.5-0.08-0.04-0.16-0.07-0.25-0.1-1.08-0.31-1.83-1.31-1.82-2.43l0.34-39.7c0.02-1.14 0.82-2.13 1.94-2.4l1.29-0.3c6.37-1.48 12.04-5.2 16.42-10.75 0.94-1.19 2.06-2.21 3.33-3.04 6.85-4.44 12.87-6.89 18.69-9.25 5.51-2.23 10.71-4.34 16.08-7.93 0.68-0.45 2.28-0.94 4.2-0.94 1.52 0 5.17 0.35 6.31 3.58 2.25 6.34-1.76 10.22-8.48 14.1-6.73 3.89-8.5 4.13-8.57 4.14-0.82 0.03-1.44 0.7-1.43 1.52s0.7 1.47 1.52 1.48l57.07 0.12c2.08 0 7.99 1.26 7.99 6.85 0 6.58-5.73 8.79-8.34 8.79l-19.59-0.04c-0.47 0-0.92 0.22-1.2 0.6s-0.37 0.87-0.23 1.33c1.82 6.06-0.59 9.71-2.94 11.71-1.77 1.5-2.46 4.01-1.74 6.23 0.63 1.92 0.44 4.09-0.56 6.43-0.81 1.89-2.24 3.29-3.31 4.14-1.12 0.89-3.64 3.26-2.89 5.99 0.59 2.14 0.14 7.34-4.98 9.79-2.21 1.06-11.23 1.59-26.8 1.59l-1.92-0.01z" fill="url(#a)"/>
  <path d="m67.94 21.33c1.49 0 4.1 0.34 4.9 2.58 1.42 3.99 0.6 7.44-7.81 12.3-5.67 3.27-7.65 3.86-8 3.94-1.5 0.12-2.7 1.34-2.76 2.87-0.06 1.61 1.16 2.99 2.77 3.11 0.08 0.01 0.16 0.01 0.24 0.01h0.03l57.05 0.12c0.06 0 6.49 0.23 6.49 5.35 0 5.99-5.48 7.29-6.83 7.29l-19.59-0.04c-0.95 0-1.84 0.45-2.41 1.21s-0.74 1.75-0.47 2.66c1.27 4.24 0.44 7.65-2.48 10.14-2.26 1.92-3.12 5-2.19 7.84 0.51 1.57 0.34 3.37-0.51 5.37-0.68 1.6-1.93 2.81-2.86 3.55-2.86 2.28-4.1 5.03-3.41 7.56 0.46 1.67 0.04 6.02-4.18 8.04-1.13 0.54-6.04 1.45-26.17 1.45h-1.91c-16.09-0.05-39.24-11.24-39.47-11.35-0.16-0.08-0.33-0.14-0.5-0.19-0.43-0.12-0.73-0.52-0.73-0.98l0.35-39.69c0.01-0.46 0.32-0.86 0.77-0.96l1.29-0.3c6.7-1.56 12.67-5.46 17.25-11.29 0.84-1.06 1.84-1.97 2.97-2.71 6.73-4.37 12.68-6.78 18.44-9.12 5.58-2.26 10.85-4.4 16.35-8.07 0.34-0.22 1.61-0.69 3.38-0.69m0-3c-2.08 0-4.02 0.52-5.03 1.19-10.88 7.26-21.3 8.43-34.76 17.17-1.55 1.01-2.75 2.18-3.69 3.37-3.96 5.03-9.34 8.77-15.58 10.22l-1.29 0.3c-1.8 0.42-3.08 2.01-3.1 3.86l-0.35 39.69c-0.02 1.81 1.17 3.4 2.91 3.89 0 0 23.79 11.61 40.78 11.64h1.92c11.18 0 24.3-0.23 27.47-1.74 5.63-2.69 6.6-8.56 5.78-11.54-0.44-1.62 1.06-3.37 2.38-4.42s2.85-2.62 3.75-4.72c1.38-3.22 1.17-5.75 0.61-7.48-0.54-1.65-0.04-3.49 1.28-4.62 2.52-2.15 5.5-6.32 3.4-13.28l19.59 0.04c3.17 0 9.84-2.62 9.84-10.29 0-6.34-6.34-8.35-9.49-8.35l-57.06-0.11h-0.01-0.01 0.03c0.24-0.01 2.09-0.21 9.23-4.33 8.56-4.94 11.37-9.62 9.14-15.9-1.24-3.45-4.65-4.59-7.74-4.59z" fill="#4A2F27"/>
  <path d="m74.29 59.36 21.17-0.46-1.7 2.45c0 0.59-0.77 1.04-1.65 0.97l-17.84-0.77c-1.78-0.14-1.76-2.1 0.02-2.19z" fill="#4A2F27"/>
  <path d="m49.27 43.2 6.97-2.81 2.47-0.94-0.87 3.32-0.94 3.23-7.48-0.09c-1.38 0.01-1.24-2.15-0.15-2.71z" fill="#4A2F27"/>
  <path d="m73.89 76.47 13.07-0.77c0.59-0.05 0.25 2.52 0.25 2.52 0 0.59-0.53 1.04-1.13 0.97l-12.23-0.77c-1.21-0.13-1.18-1.85 0.04-1.95z" fill="#4A2F27"/>
  <path d="m74.12 93.1 7.04-0.77c0.32-0.05 0.13 2.52 0.13 2.52 0 0.59-0.28 1.04-0.61 0.97l-6.58-0.77c-0.65-0.14-0.63-1.86 0.02-1.95z" fill="#4A2F27"/>
</svg>

<svg viewBox="0 0 128 128" xmlns="http://www.w3.org/2000/svg">
  <defs>
    <linearGradient id="a" gradientTransform="matrix(-1 -0.002095 -0.002095 1 0 0)" gradientUnits="userSpaceOnUse" x1="-122.39294" x2="-5.79294" y1="63.909881" y2="63.909881">
      <stop offset=".1233" stop-color="#5C4037"/>
      <stop offset=".6476" stop-color="#70534A"/>
    </linearGradient>
  </defs>
  <path d="M47.84,108.17 C31.38,108.13 7.95,96.79 7.71,96.67 C7.63,96.63 7.55,96.6 7.46,96.57 C6.38,96.26 5.63,95.26 5.64,94.14 L5.98,54.44 C6,53.3 6.8,52.31 7.92,52.04 L9.21,51.74 C15.58,50.26 21.25,46.54 25.63,40.99 C26.57,39.8 27.69,38.78 28.96,37.95 C35.81,33.51 41.83,31.06 47.65,28.7 C53.16,26.47 58.36,24.36 63.73,20.77 C64.41,20.32 66.01,19.83 67.93,19.83 C69.45,19.83 73.1,20.18 74.24,23.41 C76.49,29.75 72.48,33.63 65.76,37.51 C59.03,41.4 57.26,41.64 57.19,41.65 C56.37,41.68 55.75,42.35 55.76,43.17 C55.77,43.99 56.46,44.64 57.28,44.65 L114.35,44.77 C116.43,44.77 122.34,46.03 122.34,51.62 C122.34,58.2 116.61,60.41 114,60.41 L94.41,60.37 C93.94,60.37 93.49,60.59 93.21,60.97 C92.93,61.35 92.84,61.84 92.98,62.3 C94.8,68.36 92.39,72.01 90.04,74.01 C88.27,75.51 87.58,78.02 88.3,80.24 C88.93,82.16 88.74,84.33 87.74,86.67 C86.93,88.56 85.5,89.96 84.43,90.81 C83.31,91.7 80.79,94.07 81.54,96.8 C82.13,98.94 81.68,104.14 76.56,106.59 C74.35,107.65 65.33,108.18 49.76,108.18 L47.84,108.17 Z" fill="url(#a)"/>
  <path d="M67.94,21.33 C69.43,21.33 72.04,21.67 72.84,23.91 C74.26,27.9 73.44,31.35 65.03,36.21 C59.36,39.48 57.38,40.07 57.03,40.15 C55.53,40.27 54.33,41.49 54.27,43.02 C54.21,44.63 55.43,46.01 57.04,46.13 C57.12,46.14 57.2,46.14 57.28,46.14 L57.31,46.14 L114.36,46.26 C114.42,46.26 120.85,46.49 120.85,51.61 C120.85,57.6 115.37,58.9 114.02,58.9 L94.43,58.86 C93.48,58.86 92.59,59.31 92.02,60.07 C91.45,60.83 91.28,61.82 91.55,62.73 C92.82,66.97 91.99,70.38 89.07,72.87 C86.81,74.79 85.95,77.87 86.88,80.71 C87.39,82.28 87.22,84.08 86.37,86.08 C85.69,87.68 84.44,88.89 83.51,89.63 C80.65,91.91 79.41,94.66 80.1,97.19 C80.56,98.86 80.14,103.21 75.92,105.23 C74.79,105.77 69.88,106.68 49.75,106.68 L47.84,106.68 C31.75,106.63 8.6,95.44 8.37,95.33 C8.21,95.25 8.04,95.19 7.87,95.14 C7.44,95.02 7.14,94.62 7.14,94.16 L7.49,54.47 C7.5,54.01 7.81,53.61 8.26,53.51 L9.55,53.21 C16.25,51.65 22.22,47.75 26.8,41.92 C27.64,40.86 28.64,39.95 29.77,39.21 C36.5,34.84 42.45,32.43 48.21,30.09 C53.79,27.83 59.06,25.69 64.56,22.02 C64.9,21.8 66.17,21.33 67.94,21.33 M67.94,18.33 C65.86,18.33 63.92,18.85 62.91,19.52 C52.03,26.78 41.61,27.95 28.15,36.69 C26.6,37.7 25.4,38.87 24.46,40.06 C20.5,45.09 15.12,48.83 8.88,50.28 L7.59,50.58 C5.79,51 4.51,52.59 4.49,54.44 L4.14,94.13 C4.12,95.94 5.31,97.53 7.05,98.02 C7.05,98.02 30.84,109.63 47.83,109.66 L49.75,109.66 C60.93,109.66 74.05,109.43 77.22,107.92 C82.85,105.23 83.82,99.36 83,96.38 C82.56,94.76 84.06,93.01 85.38,91.96 C86.7,90.91 88.23,89.34 89.13,87.24 C90.51,84.02 90.3,81.49 89.74,79.76 C89.2,78.11 89.7,76.27 91.02,75.14 C93.54,72.99 96.52,68.82 94.42,61.86 L114.01,61.9 C117.18,61.9 123.85,59.28 123.85,51.61 C123.85,45.27 117.51,43.26 114.36,43.26 L57.3,43.15 L57.29,43.15 L57.28,43.15 L57.31,43.15 C57.55,43.14 59.4,42.94 66.54,38.82 C75.1,33.88 77.91,29.2 75.68,22.92 C74.44,19.47 71.03,18.33 67.94,18.33 Z" fill="#4A2F27"/>
  <path d="M74.29,59.36 L95.46,58.9 L93.76,61.35 C93.76,61.94 92.99,62.39 92.11,62.32 L74.27,61.55 C72.49,61.41 72.51,59.45 74.29,59.36 Z" fill="#4A2F27"/>
  <path d="M49.27,43.2 L56.24,40.39 L58.71,39.45 L57.84,42.77 L56.9,46 L49.42,45.91 C48.04,45.92 48.18,43.76 49.27,43.2 Z" fill="#4A2F27"/>
  <path d="M73.89,76.47 L86.96,75.7 C87.55,75.65 87.21,78.22 87.21,78.22 C87.21,78.81 86.68,79.26 86.08,79.19 L73.85,78.42 C72.64,78.29 72.67,76.57 73.89,76.47 Z" fill="#4A2F27"/>
  <path d="M74.12,93.1 L81.16,92.33 C81.48,92.28 81.29,94.85 81.29,94.85 C81.29,95.44 81.01,95.89 80.68,95.82 L74.1,95.05 C73.45,94.91 73.47,93.19 74.12,93.1 Z" fill="#4A2F27"/>
</svg>
